src/categories-icons-sprite/categories/svg-cat-cars-electronics.svg

<svg width="27" height="25" viewBox="0 0 27 25" fill="none" xmlns="http://www.w3.org/2000/svg">
<path class="p-BBDCFF" d="M3.17676 0H7.86426V3.95833H3.17676V0Z" fill="#A1D1FD"/>
<path class="p-9ABADB" d="M18.8018 0H23.4893V3.95833H18.8018V0Z" fill="#65B3E7"/>
<path class="p-E0F4FF" d="M1.61426 2.34375H9.42676V6.25H1.61426V2.34375Z" fill="#B9DFFC"/>
<path class="p-BBDCFF" d="M17.2393 2.34375H25.0518V6.25H17.2393V2.34375Z" fill="#A1D1FD"/>
<path class="p-7C8388" d="M26.6667 4.6355V7.7605L24.5209 9.323H4.599L0 7.7605V4.6355H26.6667Z" fill="#58ADE5"/>
<path class="p-7C8388" d="M26.6667 21.823V25.0001H0V21.823L3.72396 20.2605H23.7083L26.6667 21.823Z" fill="#58ADE5"/>
<path class="p-575F64" d="M26.6663 4.6355V7.7605L24.5205 9.323H13.333V4.6355H26.6663Z" fill="#4D98CB"/>
<path class="p-575F64" d="M23.708 20.2605L26.6663 21.823V25.0001H13.333V20.2605H23.708Z" fill="#4D98CB"/>
<path class="p-FF5E5B" d="M0 7.7605V21.823H26.6667V7.7605H0Z" fill="#B9DFFC"/>
<path class="p-ED3E3C" d="M13.333 7.7605H26.6663V21.823H13.333V7.7605Z" fill="#A1D1FD"/>
<path class="p-F7DC4D" d="M15.6768 12.448V7.7605L8.64551 17.1355H12.5518V21.823L13.333 20.776L19.583 12.448H15.6768Z" fill="#5FBEFF"/>
<path class="p-F7DC4D" d="M7.86426 15.573H6.30176V14.0105H4.73926V15.573H3.17676V17.1355H4.73926V18.698H6.30176V17.1355H7.86426V15.573Z" fill="#5FBEFF"/>
<path class="p-EDA637" d="M18.8018 15.573H23.4893V17.1355H18.8018V15.573Z" fill="#58ADE5"/>
<path class="p-EDA637" d="M19.583 12.448L13.333 20.776V10.8855L15.6768 7.7605V12.448H19.583Z" fill="#58ADE5"/>
</svg>

<svg width="27" height="25" fill="none" xmlns="http://www.w3.org/2000/svg"><path class="p-BBDCFF" d="M3.177 0h4.687v3.958H3.177V0z" fill="#A1D1FD"/><path class="p-9ABADB" d="M18.802 0h4.687v3.958h-4.687V0z" fill="#65B3E7"/><path class="p-E0F4FF" d="M1.614 2.344h7.813V6.25H1.614V2.344z" fill="#B9DFFC"/><path class="p-BBDCFF" d="M17.24 2.344h7.812V6.25h-7.813V2.344z" fill="#A1D1FD"/><path class="p-7C8388" d="M26.667 4.636V7.76L24.52 9.322H4.599L0 7.76V4.636h26.667zM26.667 21.823V25H0v-3.177l3.724-1.563h19.984l2.959 1.563z" fill="#58ADE5"/><path class="p-575F64" d="M26.666 4.636V7.76L24.52 9.322H13.333V4.635h13.333zM23.708 20.26l2.958 1.563V25H13.333v-4.74h10.375z" fill="#4D98CB"/><path class="p-FF5E5B" d="M0 7.76v14.063h26.667V7.76H0z" fill="#B9DFFC"/><path class="p-ED3E3C" d="M13.333 7.76h13.333v14.063H13.333V7.76z" fill="#A1D1FD"/><path class="p-F7DC4D" d="M15.677 12.448V7.76l-7.031 9.376h3.906v4.687l.781-1.047 6.25-8.328h-3.906zM7.864 15.573H6.302V14.01H4.739v1.563H3.177v1.563h1.562v1.562h1.563v-1.563h1.562v-1.562z" fill="#5FBEFF"/><path class="p-EDA637" d="M18.802 15.573h4.687v1.563h-4.687v-1.563zM19.583 12.448l-6.25 8.328v-9.89l2.344-3.125v4.687h3.906z" fill="#58ADE5"/></svg>
